X:20019
T:Triumph, The
R:Polka
C:Trad.
O:England
Z:Paul Hardy's Session Tunebook 2015 (see www.paulhardy.net). Creative Commons cc by-nc-sa licenced.
M:4/4
L:1/8
Q:1/4=140
K:G
"G"d2B2 "C"cB"D"cA|"G"G2g2 "C"efge|"G"d2B2 "C"cB"D"cA|"G"G2"D"F2 "G"G4:|
|:"D"A3c "G"B2d2|"D"A3c "G"B2d2|"D"A3c "G"B2d2|"D"dcBA "G"G4:|
|:"G"B2Bc d2cB|"D"A2AB c2BA|"G"B2Bc d2g2|"D"dcBA "G"G4:|

